assets/icons/pin_map.svg

<?xml version="1.0" encoding="UTF-8"?>
<!-- Created with Inkscape (http://www.inkscape.org/) -->
<svg width="120" height="120" version="1.1" viewBox="0 0 120 120" xmlns="http://www.w3.org/2000/svg">
 <defs>
  <clipPath id="clip-path-2-8">
   <path d="m5 12a0.5 0.5 0 0 1-0.277-0.084c-0.043-0.029-0.114-0.078-0.209-0.146-0.158-0.114-0.336-0.249-0.529-0.4a15.593 15.593 0 0 1-1.6-1.462 7.348 7.348 0 0 1-2.385-4.908 5 5 0 0 1 10 0 7.346 7.346 0 0 1-2.387 4.906 15.525 15.525 0 0 1-1.6 1.462c-0.177 0.141-0.355 0.276-0.529 0.4-0.112 0.081-0.181 0.128-0.207 0.145a0.5 0.5 0 0 1-0.277 0.087zm0-11a4 4 0 0 0-4 4 6.413 6.413 0 0 0 2.113 4.219 14.505 14.505 0 0 0 1.5 1.367c0.131 0.1 0.262 0.206 0.392 0.3 0.13-0.1 0.262-0.2 0.392-0.3a14.505 14.505 0 0 0 1.5-1.367 6.412 6.412 0 0 0 2.103-4.219 4 4 0 0 0-4-4zm0 6a2 2 0 1 1 2-2 2 2 0 0 1-2 2zm0-3a1 1 0 1 0 1 1 1 1 0 0 0-1-1z" fill="#fff" data-name="Combined Shape"/>
  </clipPath>
  <filter id="_Icon_Color-3-8" x="-61" y="-42" width="132" height="132" filterUnits="userSpaceOnUse">
   <feOffset dy="18" input="SourceAlpha"/>
   <feGaussianBlur result="blur" stdDeviation="20"/>
   <feFlood flood-color="#6b67d2" flood-opacity=".349"/>
   <feComposite in2="blur" operator="in" result="result1"/>
   <feComposite in="SourceGraphic" in2="result1"/>
  </filter>
 </defs>
 <g transform="matrix(8.3333 0 0 8.3333 18.333 10)" data-name="Grupo 92">
  <path d="m5 12a0.5 0.5 0 0 1-0.277-0.084c-0.043-0.029-0.114-0.078-0.209-0.146-0.158-0.114-0.336-0.249-0.529-0.4a15.593 15.593 0 0 1-1.6-1.462 7.348 7.348 0 0 1-2.385-4.908 5 5 0 0 1 10 0 7.346 7.346 0 0 1-2.387 4.906 15.525 15.525 0 0 1-1.6 1.462c-0.177 0.141-0.355 0.276-0.529 0.4-0.112 0.081-0.181 0.128-0.207 0.145a0.5 0.5 0 0 1-0.277 0.087zm0-11a4 4 0 0 0-4 4 6.413 6.413 0 0 0 2.113 4.219 14.505 14.505 0 0 0 1.5 1.367c0.131 0.1 0.262 0.206 0.392 0.3 0.13-0.1 0.262-0.2 0.392-0.3a14.505 14.505 0 0 0 1.5-1.367 6.412 6.412 0 0 0 2.103-4.219 4 4 0 0 0-4-4zm0 6a2 2 0 1 1 2-2 2 2 0 0 1-2 2zm0-3a1 1 0 1 0 1 1 1 1 0 0 0-1-1z" fill="#fff" data-name="Combined Shape"/>
  <g clip-path="url(#clip-path-2-8)" data-name="Enmascarar grupo 92">
   <g filter="url(#_Icon_Color-3-8)">
    <rect transform="translate(-1)" width="12" height="12" fill="#fff" data-name="↳ Icon Color"/>
   </g>
  </g>
 </g>
</svg>

<svg id="Icon_map-pin" data-name="Icon / map-pin" xmlns="http://www.w3.org/2000/svg" xmlns:xlink="http://www.w3.org/1999/xlink" width="10" height="12" viewBox="0 0 10 12">
  <defs>
    <clipPath id="clip-path">
      <path id="Combined_Shape" data-name="Combined Shape" d="M5,12a.5.5,0,0,1-.277-.084c-.043-.029-.114-.078-.209-.146-.158-.114-.336-.249-.529-.4a15.593,15.593,0,0,1-1.6-1.462A7.348,7.348,0,0,1,0,5,5,5,0,0,1,10,5,7.346,7.346,0,0,1,7.613,9.906a15.525,15.525,0,0,1-1.6,1.462c-.177.141-.355.276-.529.4-.112.081-.181.128-.207.145A.5.5,0,0,1,5,12ZM5,1A4,4,0,0,0,1,5,6.413,6.413,0,0,0,3.113,9.219a14.505,14.505,0,0,0,1.5,1.367c.131.1.262.206.392.3.13-.1.262-.2.392-.3a14.505,14.505,0,0,0,1.5-1.367A6.412,6.412,0,0,0,9,5,4,4,0,0,0,5,1ZM5,7A2,2,0,1,1,7,5,2,2,0,0,1,5,7ZM5,4A1,1,0,1,0,6,5,1,1,0,0,0,5,4Z" fill="#fff"/>
    </clipPath>
    <filter id="_Icon_Color" x="-61" y="-42" width="132" height="132" filterUnits="userSpaceOnUse">
      <feOffset dy="18" input="SourceAlpha"/>
      <feGaussianBlur stdDeviation="20" result="blur"/>
      <feFlood flood-color="#6b67d2" flood-opacity="0.349"/>
      <feComposite operator="in" in2="blur"/>
      <feComposite in="SourceGraphic"/>
    </filter>
  </defs>
  <g id="Grupo_92" data-name="Grupo 92">
    <path id="Combined_Shape-2" data-name="Combined Shape" d="M5,12a.5.5,0,0,1-.277-.084c-.043-.029-.114-.078-.209-.146-.158-.114-.336-.249-.529-.4a15.593,15.593,0,0,1-1.6-1.462A7.348,7.348,0,0,1,0,5,5,5,0,0,1,10,5,7.346,7.346,0,0,1,7.613,9.906a15.525,15.525,0,0,1-1.6,1.462c-.177.141-.355.276-.529.4-.112.081-.181.128-.207.145A.5.5,0,0,1,5,12ZM5,1A4,4,0,0,0,1,5,6.413,6.413,0,0,0,3.113,9.219a14.505,14.505,0,0,0,1.5,1.367c.131.1.262.206.392.3.13-.1.262-.2.392-.3a14.505,14.505,0,0,0,1.5-1.367A6.412,6.412,0,0,0,9,5,4,4,0,0,0,5,1ZM5,7A2,2,0,1,1,7,5,2,2,0,0,1,5,7ZM5,4A1,1,0,1,0,6,5,1,1,0,0,0,5,4Z" fill="#fff"/>
    <g id="Enmascarar_grupo_92" data-name="Enmascarar grupo 92" clip-path="url(#clip-path)">
      <g transform="matrix(1, 0, 0, 1, 0, 0)" filter="url(#_Icon_Color)">
        <rect id="_Icon_Color-2" data-name="↳ Icon Color" width="12" height="12" transform="translate(-1 0)" fill="#fff"/>
      </g>
    </g>
  </g>
</svg>
